X:1
T:Title
%%score 1 2 3 4
L:1/8
M:4/4
K:C
V:1 treble-8 nm="Part_1"
V:2 treble-8 nm="Part_2"
V:3 bass nm="Part_3"
V:4 bass nm="Part_4"
V:1
 z gef ggfe | d>d d>e cc z d | B2 c/B/c/d/ B3 A | A4 ccde | fegf e4 | d4 ddef | g2 g2 ga/g/ fg/f/ | %7
 eefe d4 | c8 | z8 | z8 | z8 | z8 | z8 | z8 | ee/e/ ee/e/ d>d d2 | ff/f/ f>f e>e e>f | de f2 e4 | %18
 d8 | z2 dd dd/d/ ef | gggg ec z e | c2 de d3 c | c8 | z BBB B3 B | ^G3 G G4 | Bc dc B4 | %26
 A4 z e e>^f | d4 z ddd | e2 ^ff e4 | d4 z ddd | e2 gg (g2 ^f2) | g8 |[M:3/2] z4 z4 d4 | d4 d6 d2 | %34
 e4 e4 e4 | e4 e6 e2 | ^f4 f4 z4 | d4 e4 ^f4 | e4 e4 ^f4 | (d4 e4) ^f4 | e4 e4 ^f4 | e8 d4 | %42
 d8 d4 | d4 e4 d4 | c4 (d4 c4) | B6 c2 d4 | c4 B6 A2 | A12 | e6 e2 e2 d2 | ^f4 f4 f2 e2 | g4 g8 | %51
 d4 d4 d4 | d6 d2 d4 | d4 d4 d4 | d6 d2 d4 | e4 c4 B4 | A8 G4 | G12 |[M:2/2] z2 dd d>dee | %59
 ffff e4 | d4 z4 | z2 dd g>fe>d | eee>g dde>g | dde>g d4 | c2 ee e>dc>B | ccc>e BBc>e | BBc>e B4 | %67
 A cde f/g/e/f/ d/e/c/d/ | B2 c>e B4 | A8 | z eee/e/ ff z d | ee z g d2 e/d/ e/f/ | d3 c c4 | %73
 z2 gg gffe | e4 d2 d2 | z ded cc/c/dd/c/ | BB/B/ e/d/e/d/ cc f/e/f/e/ | dd e/d/e/c/ d4 | c8 | %79
 z ecB c2 c2 | c2 de B>B B2 | z BBB/B/ ccdd | ee z e/f/ g2 fe | d2 e/d/ e/f/ d3 c |[M:3/2] c12 | %85
 z4 d4 d4 | f8 f4 | z4 e4 e4 | f2 e2 f2 d2 e2 f2 | e6 e2 e4 | ef g2 e6 d2 | d4 f4 f4 | f6 f2 f4 | %93
 ef g2 e6 d2 | d12 |[M:2/2] z2 d2 d2 d>c | d2 d2 z/ d/e/f/gg | z/ c/d/e/ f/e/d/c/ B4 | A8 | %99
 ee/e/ee ^ff z2 | dd z2 e>gf>e | d4 c2 ee | ed/d<d^c/ c2 c2 | z8 | z4 z2 z d | BB z e A2 G2 | z8 | %107
 d>cd/c/d/c/ B>B B2 | e>de/d/e/d/ c>c c2 | ff/f/ff/f/ ee z/ d/e/f/ | g2 fe e3 d | d2 de c2 dc | %112
 B4 A4 | z2 ee eeed | e>e e2 z efg | f2 f2 z def | f2 e2 f4 | z8 | z8 | z2 ee ee/e/dc | %120
 B2 B2 c>Bc/B/c/d/ | e2 e2 e>de/d/e/f/ | gggg gg/g/fe | d2 d2 d>cd/c/d/e/ | ff e3 f/e/ d2 | %125
 c4 z2 gg | g>gfe d2 e/d/e/f/ | d8 | c8 |] %129
V:2
 z ecd eedc | B>B B>d AA z B | ^G2 A2 A3 G | A4 AABc | d>c Bd (d2 ^c2) | d4 BBcd | %6
 e2 e2 ef/e/ de/d/ | ccAc c2 B2 | c8 | z8 | z8 | z8 | z8 | z8 | z8 | cc/c/ cc/c/ B>B B2 | %16
 dd/d/ d>d ^c>c c>d | Bc d2 (d2 ^c2) | d8 | z2 BB BB/B/ cd | eeee cc z c | A2 Bc c3 B | c8 | %23
 z ^GGG G3 G | E3 E E4 | ^GA BA A2 (G2 | A4) z ^c c>c | A4 z BBB | ^c2 dd d2 c2 | d4 z BBB | %30
 c2 cd A4 | B8 |[M:3/2] z4 z4 B4 | B4 B6 B2 | c4 c4 c4 | ^c4 c6 c2 | d4 d4 z4 | B4 ^c4 d4 | %38
 ^c4 c4 d4 | (B4 ^c4) d4 | ^c4 c4 d4 | d8 ^c4 | d8 B4 | B4 c4 B4 | A4 (B4 A4) | ^G6 A2 B4 | %46
 A4 A6 ^G2 | A12 | ^c6 c2 c2 B2 | d4 d4 d2 c2 | B4 B8 | B4 B4 B4 | B6 B2 B4 | B4 B4 B4 | B6 B2 B4 | %55
 c4 A4 G4 | G8 ^F4 | G12 |[M:2/2] z2 BB BB^cc | dddd (d2 ^c2) | d2 AA d>cB>A | B2 B2 z4 | %62
 z2 c>e BBc>e | BBcc (c2 B2) | c2 cc c>BA>^G | AAA>c ^GGA>c | ^GGAA A2 G2 | %67
 A ABc d/e/c/d/ B/c/A/B/ | ^G2 AA A2 G2 | A8 | z ^ccc/c/ dd z B | cc z e B2 cc | c3 B c2 ee | %73
 edd^c cB/c/ d2- | d2 ^c2 d2 B2 | z BcB AA/A/BB/A/ | GG/G/ c/B/c/B/ AA d/c/d/c/ | %77
 BB c/c/c/c/ c2 B2 | c8 | z cA^G A2 A2 | A2 Bc ^G>G G2 | z ^GGG/G/ AABB | cc z c/d/ e2 dc | %83
 B2 cc c3 B |[M:3/2] c12 | z4 B4 B4 | d8 d4 | z4 ^c4 c4 | d2 ^c2 d2 B2 c2 d2 | ^c6 c2 c4 | %90
 d4 d6 ^c2 | d4 d4 d4 | d6 d2 d4 | d4 d6 ^c2 | d12 |[M:2/2] z2 B2 B2 BA | B2 B2 z/ B/c/d/ee | %97
 z/ A/B/c/ d/c/B/A/ A2 ^G2 | A8 | ^cc/c/cc dd z2 | BB z2 c>ed>c | (c2 B2) c4 | z4 z2 AA | %103
 AG/G<G^F/ F2 F2 | z4 z2 z B | GG z E ^F2 G2 | z8 | B>AB/A/B/A/ G>G G2 | c>Bc/B/c/B/ A>A A2 | %109
 dd/d/dd/d/ ^cc z/ B/c/d/ | ^c2 dd d3 c | d2 Bc A2 AA | A2 ^G2 A4 | z2 ^cc cccB | ^c>c c2 z cde | %115
 d2 A2 z _BBA | G4 F4 | z8 | z8 | z2 cc cc/c/BA | ^G2 G2 A>GA/G/A/B/ | c2 c2 c>Bc/B/c/d/ | %122
 eeee ee/e/dc | B2 B2 B>AB/A/B/c/ | dd c3 d/c/ B2 | c2 ee e>edc | B6 c2 | c6 B2 | c8 |] %129
V:3
 z8 | z8 | z8 | z8 | z8 | z8 | z8 | z8 | z4 C,2 C,C, | C,2 C,2 C,D,E,C, | G,2 G,2 z2 G,G, | %11
 G,G,A,B, C2 CB, | A,2 G,2 F,3 E,/F,/ | G,2 E,C, G,,4 | C,8 | C,C,/C,/ E,E,/E,/ G,>G, G,2 | %16
 D,D,/D,/ D,D, A,>A, A,>D, | G,2 D,2 A,4 | D,2 D,D, D,D,/D,/ E,F, | G,2 G,2 z2 G,G, | %20
 E,2 C,2 z2 z C, | F,2 D,C, G,3 G, | C,8 | z E,E,E, E,3 E, | E,,3 E,, E,,4 | E,2 D,2 E,4 | %26
 A,,4 z A, A,>A, | ^F,4 z G,G,G, | E,2 D,D, A,4 | D,4 z G,G,G, | C,2 C,B,, D,4 | G,,8 | %32
[M:3/2] z12 | z12 | z12 | z12 | z12 | z12 | z12 | z12 | z12 | z12 | z12 | z12 | z12 | z12 | z12 | %47
 z12 | z12 | z12 | z12 | z12 | z12 | z12 | z12 | z12 | z12 | z12 |[M:2/2] z2 G,>G, G,>G,E,>E, | %59
 D,E,F,G, A,4 | D,2 D,D, ^F,F,F,F, | G,2 G,2 z4 | z2 C,>C, G,G,C,>C, | G,G,E,>E, G,4 | C,4 z4 | %65
 z2 A,,A,, E,E,A,,A,, | E,E,C,C, E,4 | A,,4 z2 D,D, | E,E,D,D, E,4 | A,,8 | %70
 z A,A,A,/A,/ D,D, z G, | C,C, z C, G,2 E,C, | G,3 G, C,2 C,C, | C,B,,B,,A,, A,,2 G,,2 | %74
 A,,4 D,2 G,2 | z G,E,E, F,F,/F,/D,D,/D,/ | E,E,/E,/C,C, F,F,D,D, | G,G, C,/C,/C,/C,/ G,4 | C,8 | %79
 z8 | z8 | z8 | z8 | z8 |[M:3/2] z4 C,4 C,4 | G,8 G,4 | z4 D,4 D,4 | A,8 A,4 | z4 D,4 D,4 | %89
 A,6 A,2 A,4 | G,4 A,6 A,2 | D,4 _B,,4 B,,4 | _B,,6 B,,2 B,,4 | G,,4 A,,6 A,,2 | D,12 |[M:2/2] z8 | %96
 z8 | z8 | z8 | A,A,/A,/A,A, D,D, z2 | G,G, z2 C,C,F,F, | G,4 C,4 | z8 | z4 z2 D,D, | %104
 D,D,/C,/C,B,, B,,B,, z B,, | E,E, z C, D,2 G,,2 | z8 | z8 | z8 | z8 | z8 | z2 G,E, F,2 D,D, | %112
 E,4 A,,4 | z8 | z8 | z8 | z4 z2 F,F, | F,F,/F,/E,D, C,2 C,2 | E,>D,E,/D,/E,/F,/ G,4 | %119
 C,4 C,>B,,C,/B,,/C,/D,/ | E,4 A,,4 | z2 A,A, A,A,/A,/G,F, | E,2 E,2 E,>D,E,/D,/E,/F,/ | %123
 G,G,G,G, G,G,/G,/F,E, | D,D,E,F, G,4 | C,2 C,C, C,>C,B,,A,, | G,,6 E,,2 | G,,8 | C,8 |] %129
V:4
 C,6 F,2 | G,3 E, F,2 D,2 | E,2 C,2 D,2 E,2 | A,,4 A,G,F,E, | D,2 G,,2 A,,4 | D,D,E,F, G,3 F, | %6
 E,F,E,D, C,2 D,2 | E,C, F,2 G,4 | C,8 | C,4 C,4 | G,4 G,4 | G,2 A,B, C3 B, | A,2 G,2 F,3 E,/F,/ | %13
 G,2 E,C, G,,4 | C,8 | C,2 E,2 G,4 | D,4 A,2 A,>D, | G,2 D,2 A,4 | D,4 D,2 E,F, | G,4 G,4 | %20
 E,2 C,2 C,4 | F,2 D,C, G,4 | C,8 | E,8 | E,,8 | E,2 D,2 E,4 | A,,4 A,4 | ^F,4 G,4 | E,2 D,2 A,4 | %29
 D,4 G,4 | C,3 B,, D,4 | G,,8 |[M:3/2] G,12 | G,12 | C,12 | A,,12 | D,12 | G,4 E,4 D,4 | A,8 D,4 | %39
 G,8 D,4 | A,8 ^F,4 | A,12 | D,8 G,4 | G,4 E,8 | F,4 D,8 | E,8 D,4 | A,,4 E,8 | A,,12 | A,12 | %49
 D,12 | G,,12 | G,12 | G,12 | G,12 | G,12 | C,12 | D,12 | G,,12 |[M:2/2] G,4 G,2 E,2 | %59
 D,E,F,G, A,4 | D,4 ^F,4 | G,4 B,,4 | C,2 C,2 G,2 C,2 | G,2 E,2 G,4 | C,4 A,,4 | A,,4 E,2 A,,2 | %66
 E,2 C,2 E,4 | A,4 D,4 | E,2 C,2 E,4 | A,,8 | A,4 D,2 z G, | C,2 z C, G,2 E,C, | G,4 C,4 | %73
 C,2 B,,2 A,,2 G,,2 | A,,4 D,2 G,2 | z G, E,2 F,2 D,2 | E,2 C,2 F,2 D,2 | G,2 C,2 G,,4 | C,8 | %79
 C,8 | C,4 E,4 | E,4 A,,2 G,,2 | C,4 C,2 F,2 | G,2 E,2 G,4 |[M:3/2] C,8 C,4 | G,12 | D,12 | A,12 | %88
 D,12 | A,12 | G,4 A,8 | D,4 _B,,4 B,,4 | _B,,12 | G,,4 A,,8 | D,12 |[M:2/2] G,,8 | G,6 E,2 | %97
 F,2 D,2 E,4 | A,,8 | A,4 D,2 z2 | G,2 z2 C,2 F,2 | G,4 C,4 | ^G,,4 A,,4 | ^C,4 D,4 | %104
 D,2 C,2 B,,2 z B,, | E,2 z C, D,2 G,,2 | z8 | G,,8 | E,4 F,4 | D,E,F,G, A,2 G,2 | E,2 D,2 A,4 | %111
 D,2 G,E, F,2 D,2 | E,4 A,,4 | A,8 | A,8 | D,4 _B,,4 | C,4 F,,4 | F,2 E,D, C,4 | E,3 F, G,4 | %119
 C,4 C,3 D, | E,4 A,,4 | A,4 A,2 G,F, | E,4 E,3 F, | G,4 G,2 F,E, | D,2 E,F, G,4 | C,4 C,2 B,,A,, | %126
 G,,6 E,,2 | G,,8 | C,8 |] %129

